X:1
T:Title
%%score [ ( 1 2 ) ( 3 4 ) ] [ ( 5 6 ) ( 7 8 9 ) ]
L:1/8
Q:1/4=92
M:4/4
K:Dmin
V:1 treble nm="MusicXML Part"
V:2 treble 
V:3 bass nm="MusicXML Part"
V:4 bass 
V:5 treble nm="MusicXML Part"
V:6 treble 
V:7 bass nm="MusicXML Part"
V:8 bass 
V:9 bass 
V:1
!p!!<(! d8!<)! | (c4!>)!!>(! (B4) |[M:2/4]!<(! (A4)!<)! |!>(! G4)!>)! |[M:4/4] F4 z4 | z8 | %6
w: A-|ve Ma-|ri-||a,||
[M:2/4] z4 |[M:3/4] z6 | z6 | z6 |!mp!!<(! A3 A!<)! B2 |!>(! A4!>)! A2 |!<(! d4 d2!<)! | %13
w: ||||gra- ti- a|ple- na,|gra- ti-|
[M:2/4] d4 |!f! _e4 |!>(! d4-!>)! |!pp! d4 |[M:3/4]!p! =B3 B B2 |!mp!!<(! (A3 G!<)!!>(! ^FG!>)! | %19
w: a|ple-|na,||||
[M:2/4]!<(! A2)!<)! A2- |[M:3/4]!>(! A2 z2!>)! z2 |[M:2/4] z4 | z4 |!mp! (((d2 d2 | c2 B2) | %25
w: ||||||
 A2) G2 | .A.A .G.G |!pp! ^F4) | z4 | z4 | z4 |!pp! z2 (A2 | .A.F .B.A) | A4 | z4 |!p! z2 B2 | %36
w: |||||||||||
 d2 c2 | B2 A2 |!<(! c2 B2!<)! | A2 B2- |!>(! B2 A2!>)! | B4 | z4 | z4 | z4 | z4 | z4 | %47
w: |||ven- tris|* tu-|i||||||
[M:4/4]!pp! =B4!<(! A4!<)! |!>(! G4!>)! F4 | z8 | z8 |!p!!p! d4!<(! A4 | (B3 c d4)!<)! |!f! d8- | %54
w: Je- sus|Chri- stus,|||Je- sus|Chri- * *|stus-|
!>(! d8-!>)! |!pp! d4 z4 |] %56
w: ||
V:2
 F8 | F4 D4- |[M:2/4] D2 D2- | D2 C2 |[M:4/4] D4 z4 | z8 |[M:2/4] z4 |[M:3/4] z6 | z6 | z6 | %10
w: A-|ve Ma-|* ri-||a,||||||
 ^F3 F G2 | E4 ^F2 | ^F3 F F2 |[M:2/4] G4 | G4 | z4 | z4 |[M:3/4] G3 G G2 | ^F3 E/D/ CD | %19
w: gra- ti- a|ple- na,|gra- ti- a|ple-|na,|||Do- mi- nus|te- * * * *|
[M:2/4] E2 ^F2- |[M:3/4] F2 z2 z2 |[M:2/4] z4 | z4 | (F2 F2 | F2 D2 | D2) D2 | FF _EE | D4 | z4 | %29
w: * cum,||||be- ne-|di- cta|tu in|mu- li- e- ri-|bus,||
 z4 | z4 | z2 ^F2 | ED GE | ^F4 | z4 | z2 F2 | F2 F2 | F2 F2 | G2 F2 | F2 D2 | F4 | F4 | z4 | z4 | %44
w: ||in|mu- li- e- ri-|bus,||et|be- ne|di- ctus|fru- ctus|ven- tris|tu-|i|||
 z4 | z4 | z4 |[M:4/4] z2 G4 ^F2 | _E4 D4 | z8 | z8 | D4 F4 | z2 G2- G2 ^F2 | G8- | G8- | G4 z4 |] %56
w: |||Je- sus|Chri- stus,|||Je- sus|Chri- * *|stus-|||
V:3
!p!"^T\nB"!<(! B,8!<)! |!>(! A,4!>)! G,4 |[M:2/4] (^F,4 |!<(!!>(! G,4!<)!!>)! |[M:4/4] B,4) z4 | %5
w: A-|ve Ma-|ri-||a,|
 z8 |[M:2/4] z4 |[M:3/4] z6 | z6 | z6 |!mp!!<(! D3 D!<)! D2- |!>(! D2 ^C2!<(! D2-!>)! | %12
w: |||||gra- ti- a|* ple- na,|
 D2!<)! A,3 A, |[M:2/4] D2 B,2 |!f! (G,3 A, | =B,4-) | B,4 |[M:3/4]!p! D3 D D2 | %18
w: * gra- ti-|a ple-|na, *||||
!mp!!<(! D2 C=B,!<)!!>(! A,D-!>)! |[M:2/4]!<(! D^C!<)!!>(! D2-!>)! |[M:3/4] D2 z2 z2 |[M:2/4] z4 | %22
w: ||||
 z4 |!mp! (B,2 B,2 | A,2 G,2 | ^F,2) z B, | CD B,C |!pp! A,4 | z4 | z4 | z4 |!pp! z2 D2 | CD DC | %33
w: |||||||||||
 D4 | z4 |!p! z2 D2- | D B,2 A, | D2 C2 |!<(! _E2!<)! D2 | C2 B,2 |!>(! C4!>)! | D4 | z4 | z4 | %44
w: |||||||||||
 z4 | z4 | z4 |[M:4/4]!pp!!<(! D4 D4!<)! |!>(! B,4!>)! B,4 | z8 | z8 | B,4 C4 | (G,4 A,4) | %53
w: |||Je- sus|Chri- stus,|||Je- sus|Chri- *|
!f! =B,8- | B,8- |!pp! B,4 z4 |] %56
w: stus-|||
V:4
 B,,8 | F,,4 G,,4 |[M:2/4] (D,4 | _E,4) |[M:4/4] D,4 z4 | z8 |[M:2/4] z4 |[M:3/4] z6 | z6 | z6 | %10
w: A-|ve Ma-|ri-||a,||||||
 D,3 D, G,2 | A,4 D,2- | D,2 z2 D,2- |[M:2/4] D,D, G,2 | _E,2 C,2 | z4 | z4 |[M:3/4] G,3 G, G,2 | %18
w: gra- ti- a|ple- na,|* gra-|* ti- a|ple- na,||||
 D,E, ^F,G, A,=B, |[M:2/4] A,2 D,2- |[M:3/4] D,2 z2 z2 |[M:2/4] z4 | z4 | (B,,2 B,,2 | F,2 G,2 | %25
w: |||||||
 D,2 G,2 | .F,.D, ._E,.C, | D,4) | z4 | z4 | z4 | z2 (D,2 | .A,.B, .G,.A,) | D,4 | z4 | z2 B,2 | %36
w: |||||||||||
 B,2 F,2 | B,,2 F,2 | C,2 D,2 | F,2 G,2 | F,4 | B,,4 | z4 | z4 | z4 | z4 | z4 |[M:4/4] G,4 D,4 | %48
w: |||||||||||Je- sus|
 _E,4 B,,4 | z8 | z8 | F,4 F,4 | D,4- D,4 | D,8- | D,8- | D,4 z4 |] %56
w: Chri- stus,|||Je- sus|Chri- *|stus-|||
V:5
"^S\nA" z8 | z8 |[M:2/4] z4 | z4 |[M:4/4]!p! d8 |!<(! c4!>(! B4!<)!!>)! |[M:2/4]!<(! (A4 | x4!<)! %7
w: ||||A-|ve Ma-|ri-|
[M:3/4] G4)!>)!!>(! ^F2 | G3 G A2 |!<(! G4!<)! ^F2- |!>(! F2 z2 z2!>)! | z6 |!p!!mp! A4 A2 | %13
w: * a,||||||
[M:2/4]!mf! B4 |!f! c4 | =B4- | B4- |[M:3/4]!pp! B2 z2 z2 | z6 |[M:2/4] z4 | %20
w: |||||||
[M:3/4]!mp!!<(! A3 A!<)! A2 |[M:2/4]!mf! dc BA/G/ |!mf! c B2 A |!>(! B4!>)! | z4 | z4 | z4 | %27
w: |||||||
!mp! (d2 d2 | c2 B2 | A2) (G2 | .A.A .G.G | ^F4) | z4 |!p! z2 (A2 | .A.B .B.A) | B4 | z4 | z4 | %38
w: |||||||||||
 z4 | z4 | z4 |!pp! z2 d2 |!<(! c2 B2!<)! | A2 G2 | A2 B2 | G2 G2- |!>(! G2 ^F2!>)! | %47
w: |||||||ven- tris|* tu-|
[M:4/4] G4 z4 | z8 | z2 B4 A2 | G4 ^F4 |!p! F4- F4 |!f! z2 D2 D2 d2 | =B8- | B8- |!pp! B4 z4 |] %56
w: i||Je- sus|Chri- stus,||Je- sus Chri-|stus-|||
V:6
 z8 | z8 |[M:2/4] z4 | z4 |[M:4/4] F8 | F4 D4- |[M:2/4] D2 D2- |[M:3/4] (D2 C2) D2 | _E3 E F2 | %9
w: ||||A-|ve Ma-|* ri-|* * a,|gra- ti- a|
 D4 D2- | D2 z2 z2 | z6 | D4 D2 |[M:2/4] D4 | C4 | D4- | D4- |[M:3/4] D2 z2 z2 | z6 |[M:2/4] z4 | %20
w: ple- na,|||gra- ti-|a|ple-|na,|||||
[M:3/4] ^F3 F F2 |[M:2/4] D_E FG | F/_E/ D/E/ F2 | F4 | z4 | z4 | z4 | A2 A2 | A2 F2 | F2 D2 | %30
w: Do- mi- nus|te- * * *||cum,||||be- ne-|di- cta|tu in|
 EF DC | D4 | z4 | z2 ^F2 | FD GF | D4 | z4 | z4 | z4 | z4 | z4 | z2 F2 | F2 D2 | D2 D2 | F2 F2 | %45
w: mu- li- e- ri-|bus,||in|mu- li- e- ri-|bus,||||||et|be- ne|di- ctus|fru- ctus|
 _E2 E2 | D4 |[M:4/4] D4 z4 | z8 | F4 F4 | D4 D4 | z4 C4 | G4 D4 | D8- | D8- | D4 z4 |] %56
w: ven- tris|tu-|i||Je- sus|Chri- stus,|Je-|sus Chri-|stus-|||
V:7
"^T\nB" x8 | x8 |[M:2/4] x4 | x4 |[M:4/4]!p! x8 |!<(! x8!<)! |[M:2/4]!<(! x4 | x4!<)! %7
[M:3/4]!>(! x6!>)! | x6 |!<(! x6!<)! | x6 | x6 |!p!!mp! x6 |[M:2/4]!mf! G,4 |!f! x4 |!>(! x4 | %16
 x4!>)! |[M:3/4]!pp! x6 | x6 |[M:2/4] x4 |[M:3/4]!mp!!<(! x6!<)! |[M:2/4] x4 | x4 |!>(! x4!>)! | %24
 x4 | x4 | x4 |!mp! x4 | x4 | x4 | x4 | x4 | x4 |!p! x4 | x4 | x4 | x4 | x4 | x4 | x4 | x4 | %41
!pp! x4 |!<(! x4!<)! | x4 | x4 | x4 |!>(! x4!>)! |[M:4/4] x8 | x8 | x8 | x8 |!p! x8 | x8 |!f! x8 | %54
!>(! x8!>)! |!pp! x8 |] %56
V:8
 z8 | z8 |[M:2/4] z4 | z4 |[M:4/4] B,8 | A,4!>)!!>(! G,4 |[M:2/4] (^F,4 |[M:3/4] G,4) A,2 | %8
w: ||||A-|ve Ma-|ri-|* a,|
 C3 C C2 | B,4!>(! A,2-!>)! | A,2 z2 z2 | z6 | A,4 A,2 |[M:2/4] x4 | G,4 | G,4- | G,4- | %17
w: |||||||||
[M:3/4] G,2 z2 z2 | z6 |[M:2/4] z4 |[M:3/4] D3 D D2 |[M:2/4] F_E DC/B,/ | A,B, C2 | D4 | z4 | z4 | %26
w: |||||||||
 z4 | ^F2 F2 | E2 D2 | C2 z D | ^C=C B,G, | A,4 | z4 | z2 D2 | CB, _EC | B,4 | z4 | z4 | z4 | z4 | %40
w: ||||||||||||||
 z4 | z2 B,2 | A,2 G,2 | ^F,2 B,2 | C2 D2 | B,2 C2 | A,4 |[M:4/4] G,4 z4 | z8 | D4 C4 | B,4 A,4 | %51
w: |||||||||Je- sus|Chri- stus,|
 D4!<(! C4 | (B,4 A,4)!<)! | G,8- | G,8- | G,4 z4 |] %56
w: Je- sus|Chri- *|stus-|||
V:9
 z8 | z8 |[M:2/4] z4 | z4 |[M:4/4] B,,8 | F,,4 G,,4 |[M:2/4] (D,4 |[M:3/4] _E,4) D,2 | C,3 C, F,2 | %9
w: ||||A-|ve Ma-|ri-|* a,||
 G,4 D,2- | D,2 z2 z2 | z6 | D,4 D,2 |[M:2/4] G,,4 | C,4 | G,,4- | G,,4 |[M:3/4] G,,2 z2 z2 | z6 | %19
w: ||||||||||
[M:2/4] z4 |[M:3/4] D,3 D, D,2 |[M:2/4] B,,C, D,_E, | F,G, F,2 | B,,4 | z4 | z4 | z4 | (D,2 D,2 | %28
w: |||||||||
 A,2 B,2 | A,2) (B,2 | .A,.F, .G,._E, | D,4) | z4 | z2 (D,2 | .F,.G, ._E,.F,) | B,,4 | z4 | z4 | %38
w: ||||||||||
 z4 | z4 | z4 | z2 B,,2 | F,,2 G,,2 | D,2 G,2 | F,2 B,,2 | _E,2 C,2 | D,4 |[M:4/4] G,,4 z4 | z8 | %49
w: |||||||||||
 B,4 F,4 | G,4 D,4 | B,,4 F,,4 | (G,,4 D,4) | G,,8- | G,,8- | G,,4 z4 |] %56
w: . sus|Chri- stus,|Je- sus|Chri- *|stus-|||

